X: 26630
T: Mickey Mor Doherty's March
R: polka
M: 2/4
K: Dmixolydian
|:"D" A>G FG|"F" A/B/c/A/ "G" BG|"D" A>G FG|"A" A/d/"D"d/^c/ d2|
"D" A>G FG|"Am" A/B/c/A/ "G" BG|"D" Ad "A" ^c/d/e|1 "D" d2 d2:|2 "D" d2- d>e||
|:"D" fa "C" g/f/e|"D" d>B Ae|"D" fa "C" g/f/e|"D" d2- d>e|
"D" fa "C" g/f/e|"D" d>B AB|"Am" cB AF|"G" GA/B/ "C" c"G"B:|

